public/email.svg

<svg width="24" height="24" viewBox="0 0 24 24" fill="none" xmlns="http://www.w3.org/2000/svg">
<g clip-path="url(#clip0_377_234)">
<path d="M23.2419 10.875C23.1911 9.60357 22.8904 8.3546 22.3568 7.19944C21.7759 5.93888 20.9541 4.80412 19.9376 3.85908C17.7989 1.85414 14.9799 0.75 12 0.75C9.77499 0.749993 7.59992 1.40979 5.74986 2.64596C3.8998 3.88212 2.45785 5.63913 1.60636 7.69481C0.754873 9.75048 0.532086 12.0125 0.966173 14.1948C1.40026 16.3771 2.47172 18.3816 4.04507 19.955C6.1408 22.0507 8.97887 23.2347 11.9426 23.2499C14.9064 23.265 17.7564 22.1099 19.8734 20.0357L18.8234 18.9643C17.0043 20.7549 14.5525 21.7559 12 21.75C6.6239 21.75 2.25004 17.3761 2.25004 12C2.25004 6.62386 6.6239 2.25 12 2.25C17.2851 2.25 21.75 6.37148 21.75 11.25V12.9375C21.75 14.2815 20.5724 15.375 19.125 15.375C17.6776 15.375 16.5 14.2815 16.5 12.9375V7.5H15V8.75395C14.304 8.10744 13.4279 7.6877 12.4879 7.55037C11.5479 7.41304 10.5883 7.56461 9.73639 7.98498C8.88446 8.40535 8.18039 9.07467 7.71749 9.90425C7.25458 10.7338 7.05469 11.6845 7.14431 12.6302C7.23393 13.576 7.60883 14.4722 8.21933 15.2001C8.82982 15.9279 9.64708 16.4531 10.5628 16.7059C11.4785 16.9588 12.4495 16.9274 13.347 16.616C14.2444 16.3045 15.0261 15.7277 15.5883 14.9619C16.3105 16.1072 17.6255 16.875 19.125 16.875C21.3996 16.875 23.25 15.1087 23.25 12.9375V10.875H23.2419ZM11.8125 15.375C11.1821 15.375 10.5658 15.1881 10.0417 14.8378C9.51748 14.4876 9.10893 13.9897 8.86767 13.4073C8.62642 12.8249 8.5633 12.184 8.68629 11.5656C8.80928 10.9473 9.11286 10.3794 9.55864 9.9336C10.0044 9.48782 10.5724 9.18424 11.1907 9.06125C11.809 8.93826 12.4499 9.00138 13.0323 9.24263C13.6148 9.48389 14.1126 9.89244 14.4629 10.4166C14.8131 10.9408 15 11.5571 15 12.1875C14.9991 13.0326 14.663 13.8428 14.0654 14.4403C13.4678 15.0379 12.6576 15.374 11.8125 15.375Z" fill="#FFFFFF"/>
</g>
<defs>
<clipPath id="clip0_377_234">
<rect width="24" height="24" fill="#FFFFFF"/>
</clipPath>
</defs>
</svg>

<svg xmlns="http://www.w3.org/2000/svg" width="24" height="24" fill="none"><g clip-path="url(#a)"><path fill="#FFF" d="M23.24 10.88a9.69 9.69 0 0 0-.88-3.68c-.58-1.26-1.4-2.4-2.42-3.34A11.55 11.55 0 0 0 5.75 2.65a11.25 11.25 0 1 0 14.12 17.39l-1.05-1.08A9.76 9.76 0 1 1 12 2.25c5.29 0 9.75 4.12 9.75 9v1.69c0 1.34-1.18 2.44-2.63 2.44-1.44 0-2.62-1.1-2.62-2.44V7.5H15v1.25a4.69 4.69 0 1 0 .59 6.21 4.17 4.17 0 0 0 3.54 1.91 4.04 4.04 0 0 0 4.12-3.93v-2.06Zm-11.43 4.5a3.19 3.19 0 1 1 0-6.38 3.19 3.19 0 0 1 0 6.38Z"/></g><defs><clipPath id="a"><path fill="#FFF" d="M0 0h24v24H0z"/></clipPath></defs></svg>
